SVG_Azure_Grouped/Security/Azure Firewall TLS Inspection.svg

<?xml version="1.0" encoding="UTF-8" standalone="no"?>
<!-- Generated by Microsoft Visio, SVG Export Azure Firewall TLS Inspection.svg Page-1 -->

<svg
   xmlns:dc="http://purl.org/dc/elements/1.1/"
   xmlns:cc="http://creativecommons.org/ns#"
   xmlns:rdf="http://www.w3.org/1999/02/22-rdf-syntax-ns#"
   xmlns:svg="http://www.w3.org/2000/svg"
   xmlns="http://www.w3.org/2000/svg"
   xmlns:sodipodi="http://sodipodi.sourceforge.net/DTD/sodipodi-0.dtd"
   xmlns:inkscape="http://www.inkscape.org/namespaces/inkscape"
   width="0.78746593in"
   height="0.80579007in"
   viewBox="0 0 56.697385 58.016775"
   xml:space="preserve"
   class="st6"
   version="1.1"
   id="svg45"
   sodipodi:docname="Azure Firewall TLS Inspection.svg"
   style="font-size:12px;overflow:visible;color-interpolation-filters:sRGB;fill:none;fill-rule:evenodd;stroke-linecap:square;stroke-miterlimit:3"
   inkscape:version="0.92.5 (2060ec1f9f, 2020-04-08)"><metadata
   id="metadata49"><rdf:RDF><cc:Work
       rdf:about=""><dc:format>image/svg+xml</dc:format><dc:type
         rdf:resource="http://purl.org/dc/dcmitype/StillImage" /></cc:Work></rdf:RDF></metadata><sodipodi:namedview
   pagecolor="#ffffff"
   bordercolor="#666666"
   borderopacity="1"
   objecttolerance="10"
   gridtolerance="10"
   guidetolerance="10"
   inkscape:pageopacity="0"
   inkscape:pageshadow="2"
   inkscape:window-width="640"
   inkscape:window-height="480"
   id="namedview47"
   showgrid="false"
   inkscape:zoom="1.4044249"
   inkscape:cx="37.796798"
   inkscape:cy="38.666766"
   inkscape:window-x="0"
   inkscape:window-y="0"
   inkscape:window-maximized="0"
   inkscape:current-layer="svg45" />
	<style
   type="text/css"
   id="style2">
	<![CDATA[
		.st1 {fill:url(#grad0-6);stroke:none;stroke-linecap:butt;stroke-width:34}
		.st2 {fill:#37c2b1;stroke:none;stroke-linecap:butt;stroke-width:34}
		.st3 {fill:#3cd4c2;stroke:none;stroke-linecap:butt;stroke-width:34}
		.st4 {fill:#42e8ca;fill-opacity:0.5;stroke:none;stroke-linecap:butt;stroke-width:34}
		.st5 {fill:#ffffff;fill-opacity:0.8;stroke:none;stroke-linecap:butt;stroke-width:34}
		.st6 {fill:none;fill-rule:evenodd;font-size:12px;overflow:visible;stroke-linecap:square;stroke-miterlimit:3}
	]]>
	</style>

	<defs
   id="Patterns_And_Gradients">
		<linearGradient
   id="grad0-6"
   x1="-4.0567093"
   y1="80.222515"
   x2="41.193153"
   y2="80.222515"
   gradientTransform="scale(0.98705724,1.0131125)"
   gradientUnits="userSpaceOnUse">
			<stop
   offset="0"
   stop-color="#5ea0ef"
   stop-opacity="1"
   id="stop4" />
			<stop
   offset="1"
   stop-color="#0078d4"
   stop-opacity="1"
   id="stop6" />
		</linearGradient>
	</defs>
	<g
   id="g43"
   transform="translate(-34,-33.998231)">
		<title
   id="title10">Page-1</title>
		<g
   id="group16947-1"
   transform="translate(34,-34.0157)">
			<title
   id="title12">Azure Firewall TLS Inspection.16947</title>
			<g
   id="group16948-2">
				<title
   id="title14">Sheet.16948</title>
				<g
   id="shape16949-3"
   transform="translate(4.02537,-13.2605)">
					<title
   id="title16">Sheet.16949</title>
					<path
   d="m 25.14,123.24 a 4.0126,4.11645 0 0 1 0.02,-0.52 3.79843,3.89673 0 0 1 2.93,-3.44 v -3.15 a 12.7276,13.057 0 0 1 3.42,-9.11 11.685,11.9875 0 0 1 0.66,-0.67 11.8173,12.1232 0 0 1 8.05,-3.23 c 0.15,0 0.29,0.04 0.44,0.05 a 22.3433,22.9216 -180 1 0 -15.52,22.86 z"
   class="st1"
   id="path18"
   inkscape:connector-curvature="0"
   style="fill:url(#grad0-6);stroke:none;stroke-width:34;stroke-linecap:butt" />
				</g>
				<g
   id="shape16950-7"
   transform="translate(31.715)">
					<title
   id="title21">Sheet.16950</title>
					<path
   d="m 23.68,108.55 h -1.57 v -5.72 A 10.2803,10.5464 -180 0 0 19.36,95.54 9.30394,9.54473 -180 0 0 6.22,95.02 9.92756,10.1845 -180 0 0 5.7,95.54 10.2583,10.5238 -180 0 0 2.95,102.83 v 5.72 H 1.38 a 1.25984,1.29245 -180 0 0 -1.38,1.16 1.11181,1.14059 -180 0 0 0,0.21 v 14.82 a 1.25984,1.29245 -180 0 0 1.26,1.29 h 22.42 a 1.25984,1.29245 -180 0 0 1.3,-1.25 v -14.86 a 1.25984,1.29245 -180 0 0 -1.18,-1.37 z m -6.08,0 H 7.39 v -5.8 A 5.60945,5.75463 0 0 1 9,98.73 a 4.67087,4.79175 0 0 1 6.6,-0.41 4.60787,4.72713 0 0 1 0.39,0.41 6.0252,6.18114 0 0 1 0.63,0.8 5.48346,5.62538 0 0 1 0.98,3.18 z"
   class="st2"
   id="path23"
   inkscape:connector-curvature="0"
   style="fill:#37c2b1;stroke:none;stroke-width:34;stroke-linecap:butt" />
				</g>
				<g
   id="shape16951-9"
   transform="translate(31.7291,-0.407121)">
					<title
   id="title26">Sheet.16951</title>
					<path
   d="m 1.29,108.96 h 22.37 a 1.25984,1.29245 0 0 1 0.82,0.32 L 0.47,126.03 A 1.28504,1.3183 0 0 1 0,125.06 v -14.73 a 1.25984,1.29245 0 0 1 1.17,-1.37 z"
   class="st3"
   id="path28"
   inkscape:connector-curvature="0"
   style="fill:#3cd4c2;stroke:none;stroke-width:34;stroke-linecap:butt" />
				</g>
				<g
   id="shape16952-11"
   transform="translate(32.2079,-0.407121)">
					<title
   id="title31">Sheet.16952</title>
					<path
   d="M 23.19,108.96 H 0.83 A 1.2378,1.26983 -180 0 0 0,109.28 l 24.01,16.75 a 1.17165,1.20198 -180 0 0 0.47,-0.97 v -14.73 a 1.25984,1.29245 -180 0 0 -1.17,-1.37 z"
   class="st4"
   id="path33"
   inkscape:connector-curvature="0"
   style="fill:#42e8ca;fill-opacity:0.5;stroke:none;stroke-width:34;stroke-linecap:butt" />
				</g>
				<g
   id="shape16953-13"
   transform="translate(0,-25.0412)">
					<title
   id="title36">Sheet.16953</title>
					<path
   d="m 28.42,115.67 -9.19,-9.63 A 0.456693,0.468513 -180 0 0 18.584331,105.998 0.440945,0.452357 -180 0 0 18.43,106.36311 V 111.93 a 0.491339,0.504055 0 0 1 -0.488189,0.50082 L 0.29,112.43 a 22.3969,22.9765 -180 0 0 -0.29,3.52 22.7433,23.3319 -180 0 0 0.26,3.31 h 17.69 a 0.488189,0.500824 0 0 1 0.472441,0.51052 L 18.43,125.55 a 0.456693,0.468513 -180 0 0 0.444094,0.48144 0.466142,0.478206 -180 0 0 0.359055,-0.15833 L 28.42,116.35 a 0.425197,0.436201 -180 0 0 0.05354,-0.62038 z"
   class="st5"
   id="path38"
   inkscape:connector-curvature="0"
   style="fill:#ffffff;fill-opacity:0.8;stroke:none;stroke-width:34;stroke-linecap:butt" />
				</g>
			</g>
		</g>
	</g>
</svg>

<?xml version="1.0" encoding="UTF-8" standalone="no"?>
<!DOCTYPE svg PUBLIC "-//W3C//DTD SVG 1.1//EN" "http://www.w3.org/Graphics/SVG/1.1/DTD/svg11.dtd">
<!-- Generated by Microsoft Visio, SVG Export Azure Firewall TLS Inspection.svg Page-1 -->
<svg xmlns="http://www.w3.org/2000/svg" xmlns:xlink="http://www.w3.org/1999/xlink" xmlns:ev="http://www.w3.org/2001/xml-events"
		width="1.73188in" height="1.75042in" viewBox="0 0 124.695 126.03" xml:space="preserve" color-interpolation-filters="sRGB"
		class="st6">
	<style type="text/css">
	<![CDATA[
		.st1 {fill:url(#grad0-6);stroke:none;stroke-linecap:butt;stroke-width:34}
		.st2 {fill:#37c2b1;stroke:none;stroke-linecap:butt;stroke-width:34}
		.st3 {fill:#3cd4c2;stroke:none;stroke-linecap:butt;stroke-width:34}
		.st4 {fill:#42e8ca;fill-opacity:0.5;stroke:none;stroke-linecap:butt;stroke-width:34}
		.st5 {fill:#ffffff;fill-opacity:0.8;stroke:none;stroke-linecap:butt;stroke-width:34}
		.st6 {fill:none;fill-rule:evenodd;font-size:12px;overflow:visible;stroke-linecap:square;stroke-miterlimit:3}
	]]>
	</style>

	<defs id="Patterns_And_Gradients">
		<linearGradient id="grad0-6" x1="0" y1="0" x2="1" y2="0" gradientTransform="rotate(90 0.5 0.5)">
			<stop offset="0" stop-color="#5ea0ef" stop-opacity="1"/>
			<stop offset="1" stop-color="#0078d4" stop-opacity="1"/>
		</linearGradient>
	</defs>
	<g>
		<title>Page-1</title>
		<g id="group16554-1" transform="translate(34,-34.0157)">
			<title>Azure Firewall TLS Inspection.16554</title>
			<g id="group16555-2">
				<title>Sheet.16555</title>
				<g id="shape16556-3" transform="translate(4.02537,-13.2605)">
					<title>Sheet.16556</title>
					<path d="M25.14 123.24 A4.0126 4.11645 0 0 1 25.16 122.72 A3.79843 3.89673 0 0 1 28.09 119.28 L28.09 116.13 A12.7276
								 13.057 0 0 1 31.51 107.02 A11.685 11.9875 0 0 1 32.17 106.35 A11.8173 12.1232 0 0 1 40.22 103.12
								 C40.37 103.12 40.51 103.16 40.66 103.17 A22.3433 22.9216 -180 1 0 25.14 126.03 L25.14 123.24 Z"
							class="st1"/>
				</g>
				<g id="shape16557-7" transform="translate(31.715,-2.41585E-13)">
					<title>Sheet.16557</title>
					<path d="M23.68 108.55 L22.11 108.55 L22.11 102.83 A10.2803 10.5464 -180 0 0 19.36 95.54 A9.30394 9.54473 -180
								 0 0 6.22 95.02 A9.92756 10.1845 -180 0 0 5.7 95.54 A10.2583 10.5238 -180 0 0 2.95 102.83 L2.95 108.55
								 L1.38 108.55 A1.25984 1.29245 -180 0 0 0 109.71 A1.11181 1.14059 -180 0 0 0 109.92 L0 124.74 A1.25984
								 1.29245 -180 0 0 1.26 126.03 L23.68 126.03 A1.25984 1.29245 -180 0 0 24.98 124.78 L24.98 109.92
								 A1.25984 1.29245 -180 0 0 23.8 108.55 L23.68 108.55 ZM17.6 108.55 L7.39 108.55 L7.39 102.75 A5.60945
								 5.75463 0 0 1 9 98.73 A4.67087 4.79175 0 0 1 15.6 98.32 A4.60787 4.72713 0 0 1 15.99 98.73 A6.0252
								 6.18114 0 0 1 16.62 99.53 A5.48346 5.62538 0 0 1 17.6 102.71 L17.6 108.55 Z" class="st2"/>
				</g>
				<g id="shape16558-9" transform="translate(31.7291,-0.407121)">
					<title>Sheet.16558</title>
					<path d="M1.29 108.96 L23.66 108.96 A1.25984 1.29245 0 0 1 24.48 109.28 L0.47 126.03 A1.28504 1.3183 0 0 1 0
								 125.06 L0 110.33 A1.25984 1.29245 0 0 1 1.17 108.96 L1.29 108.96 Z" class="st3"/>
				</g>
				<g id="shape16559-11" transform="translate(32.2079,-0.407121)">
					<title>Sheet.16559</title>
					<path d="M23.19 108.96 L0.83 108.96 A1.2378 1.26983 -180 0 0 -0 109.28 L24.01 126.03 A1.17165 1.20198 -180 0
								 0 24.48 125.06 L24.48 110.33 A1.25984 1.29245 -180 0 0 23.31 108.96 L23.19 108.96 Z" class="st4"/>
				</g>
				<g id="shape16560-13" transform="translate(2.81775E-13,-25.0412)">
					<title>Sheet.16560</title>
					<path d="M28.42 115.67 L19.23 106.04 a0.456693 0.468513 -180 0 0 -0.645669 -0.0420046 a0.440945 0.452357 -180
								 0 0 -0.154331 0.365117 L18.43 111.93 a0.491339 0.504055 0 0 1 -0.488189 0.500824 L0.29 112.43 A22.3969
								 22.9765 -180 0 0 0 115.95 A22.7433 23.3319 -180 0 0 0.26 119.26 L17.95 119.26 a0.488189 0.500824
								 0 0 1 0.472441 0.510517 L18.43 125.55 a0.456693 0.468513 -180 0 0 0.444094 0.481437 a0.466142 0.478206
								 -180 0 0 0.359055 -0.158325 L28.42 116.35 a0.425197 0.436201 -180 0 0 0.0535433 -0.620375 L28.42
								 115.67 Z" class="st5"/>
				</g>
			</g>
		</g>
	</g>
</svg>
